src/assets/img/logo-b-mobile-nav.svg

<svg viewBox="0 0 54 54" xmlns="http://www.w3.org/2000/svg"><path d="m54 0v54h-54" fill="#f9537e"/><g transform="translate(-23.92 -11.22)"><path d="m54.32 40.31h-5.22v5.14h5.22a2.57 2.57 0 0 0 2.57-2.57 2.62 2.62 0 0 0 -2.57-2.57z" fill="none"/><path d="m61.29 36.35a8.45 8.45 0 0 0 .88-9.35l-20.88 20.85v4h14.65a8.66 8.66 0 0 0 5.35-15.51zm-7 9.1h-5.19v-5.14h5.22a2.62 2.62 0 0 1 2.57 2.57 2.57 2.57 0 0 1 -2.57 2.57z" fill="#343790"/><path d="m55.44 31.2a2.59 2.59 0 0 0 -2.58-2.58h-3.76v5.15h3.76a2.58 2.58 0 0 0 2.58-2.57z" fill="#343790"/><path d="m23.92 11.22v54l17.37-17.37v-25.69h13.12a8.94 8.94 0 0 1 7.76 4.84l15.75-15.78z" fill="#343790"/></g></svg>

<svg id="Layer_1" data-name="Layer 1" xmlns="http://www.w3.org/2000/svg" viewBox="0 0 54 54"><defs><style>.cls-1{fill:#f9537e;}.cls-2{fill:none;}.cls-3{fill:#343790;}</style></defs><title>logo-b-mobile-nav</title><g id="logo"><polyline class="cls-1" points="54 0 54 54 0 54"/><path class="cls-2" d="M54.32,40.31H49.1v5.14h5.22a2.57,2.57,0,0,0,2.57-2.57h0A2.62,2.62,0,0,0,54.32,40.31Z" transform="translate(-23.92 -11.22)"/><path class="cls-3" d="M61.29,36.35A8.45,8.45,0,0,0,62.17,27L41.29,47.85v4H55.94a8.66,8.66,0,0,0,5.35-15.51Zm-7,9.1H49.1V40.31h5.22a2.62,2.62,0,0,1,2.57,2.57,2.57,2.57,0,0,1-2.57,2.57Z" transform="translate(-23.92 -11.22)"/><path class="cls-3" d="M55.44,31.2a2.59,2.59,0,0,0-2.58-2.58H49.1v5.15h3.76a2.58,2.58,0,0,0,2.58-2.57Z" transform="translate(-23.92 -11.22)"/><path class="cls-3" d="M23.92,11.22v54L41.29,47.85V22.16H54.41A8.94,8.94,0,0,1,62.17,27L77.92,11.22Z" transform="translate(-23.92 -11.22)"/></g></svg>
